icons-dark/apps/48/internet-web-browser.svg

<?xml version="1.0" encoding="UTF-8" standalone="no"?>

<!-- Created with Inkscape (http://www.inkscape.org/) -->
<svg width="48" version="1.1" xmlns="http://www.w3.org/2000/svg" height="48" xmlns:xlink="http://www.w3.org/1999/xlink" xmlns:inkscape="http://www.inkscape.org/namespaces/inkscape">
 <defs id="defs5455">
  <linearGradient inkscape:collect="always" id="linearGradient4299">
   <stop style="stop-color:#abf9c7" id="stop4301"/>
   <stop offset="1" style="stop-color:#54d883" id="stop4303"/>
  </linearGradient>
  <linearGradient inkscape:collect="always" id="linearGradient4143">
   <stop style="stop-color:#197cf1" id="stop4145"/>
   <stop offset="1" style="stop-color:#20bcfa" id="stop4147"/>
  </linearGradient>
  <linearGradient inkscape:collect="always" id="linearGradient4149" xlink:href="#linearGradient4143" y1="545.79797" y2="517.79797" gradientUnits="userSpaceOnUse" x2="0" gradientTransform="matrix(1.4285699 0 0 1.4285699 -163.67291 -235.91261)"/>
  <linearGradient inkscape:collect="always" id="linearGradient4227">
   <stop style="stop-color:#292c2f" id="stop4229"/>
   <stop offset="1" style="stop-opacity:0" id="stop4231"/>
  </linearGradient>
  <linearGradient inkscape:collect="always" id="linearGradient4251" xlink:href="#linearGradient4227" y1="12.505747" y2="19.505716" x1="23.00004" gradientUnits="userSpaceOnUse" x2="30.00001"/>
  <linearGradient inkscape:collect="always" xlink:href="#linearGradient4299" id="linearGradient4305" y1="503.798" y2="543.79797" x2="0" gradientUnits="userSpaceOnUse"/>
 </defs>
 <metadata id="metadata5458"/>
 <g inkscape:label="Capa 1" inkscape:groupmode="layer" id="layer1" transform="matrix(1 0 0 1 -384.57143 -499.798)">
  <rect width="39.999973" x="388.57141" y="503.798" rx="19.999987" height="39.999996" style="fill:url(#linearGradient4149)" id="rect4130"/>
  <path inkscape:connector-curvature="0" style="fill:url(#linearGradient4305);fill-rule:evenodd" id="path4179" d="m 408.57143,503.798 c -1.45186,0 -2.86408,0.16007 -4.22656,0.45117 l -1.77344,3.54883 -2.67969,-2.00977 c -4.80613,2.31121 -8.52914,6.47192 -10.2539,11.58399 l 3.93359,-1.57422 3,2 1,-3 13,-7 -0.79297,-3.96094 c -0.39982,-0.0236 -0.80108,-0.0391 -1.20703,-0.0391 z m 14.81055,6.56836 -0.81055,2.43164 1,1 -4,6 2,7 6.63281,0.83008 c 0.23855,-1.23928 0.36719,-2.51913 0.36719,-3.83008 0,-3.42478 -0.85652,-6.64071 -2.36133,-9.45313 l -1.63867,-0.54687 0.5957,-1.19336 c -0.53534,-0.79408 -1.14412,-1.53142 -1.78515,-2.23828 z m -34.41407,9.43164 c -0.22071,1.09575 -0.34598,2.22693 -0.38085,3.38086 l 6.98437,2.61914 -1,-3 -2,-3 z m 6.60352,6 5,12 0,4.33789 c 2.44878,1.06492 5.15053,1.66211 8,1.66211 0.19869,0 0.39453,-0.008 0.5918,-0.0137 l 6.4082,-10.98633 -16,-9 -4,2 z"/>
  <path style="opacity:0.2" id="path4352" d="M 4.0507812 23.5 C 4.0465376 23.670335 4 23.828607 4 24 C 4 35.079993 12.920007 44 24 44 C 35.079993 44 44 35.079993 44 24 C 44 23.828607 43.953463 23.670335 43.949219 23.5 C 43.919169 24.706109 43.828388 25.898126 43.595703 27.041016 C 43.330156 28.345312 42.938281 29.601641 42.433594 30.798828 C 41.928907 31.996015 41.311171 33.133594 40.59375 34.197266 C 39.876329 35.260937 39.058046 36.250547 38.154297 37.154297 C 37.250547 38.058046 36.260937 38.876329 35.197266 39.59375 C 34.133594 40.311171 32.996015 40.928907 31.798828 41.433594 C 30.601641 41.938281 29.345312 42.330156 28.041016 42.595703 C 26.73672 42.86125 25.384999 43 24 43 C 22.615001 43 21.26328 42.86125 19.958984 42.595703 C 18.654688 42.330156 17.398359 41.938281 16.201172 41.433594 C 15.602578 41.18125 15.018174 40.900948 14.451172 40.59375 C 13.88417 40.286552 13.33457 39.952461 12.802734 39.59375 C 11.739063 38.876329 10.749453 38.058046 9.8457031 37.154297 C 8.9419537 36.250547 8.1236714 35.260937 7.40625 34.197266 C 6.6888286 33.133594 6.0710934 31.996015 5.5664062 30.798828 C 5.0617191 29.601641 4.6698436 28.345312 4.4042969 27.041016 C 4.1716115 25.898126 4.0808305 24.706109 4.0507812 23.5 z " transform="matrix(1 0 0 1 384.57143 499.798)"/>
 </g>
</svg>

<svg width="48" xmlns="http://www.w3.org/2000/svg" height="48">
 <defs>
  <linearGradient id="a" y1="543.8" y2="503.8" gradientUnits="userSpaceOnUse" x2="0">
   <stop stop-color="#197cf1"/>
   <stop offset="1" stop-color="#20bcfa"/>
  </linearGradient>
  <linearGradient id="b" y1="503.8" y2="543.8" x2="0" gradientUnits="userSpaceOnUse">
   <stop stop-color="#abf9c7"/>
   <stop offset="1" stop-color="#54d883"/>
  </linearGradient>
 </defs>
 <g transform="translate(-384.57-499.8)">
  <rect width="40" x="388.57" y="503.8" fill="url(#a)" rx="20" height="40"/>
  <path fill="url(#b)" fill-rule="evenodd" d="m408.57 503.8c-1.452 0-2.864.16-4.227.451l-1.773 3.549-2.68-2.01c-4.806 2.311-8.529 6.472-10.254 11.584l3.934-1.574 3 2 1-3 13-7-.793-3.961c-.4-.024-.801-.039-1.207-.039m14.811 6.568l-.811 2.432 1 1-4 6 2 7 6.633.83c.239-1.239.367-2.519.367-3.83 0-3.425-.857-6.641-2.361-9.453l-1.639-.547.596-1.193c-.535-.794-1.144-1.531-1.785-2.238m-34.414 9.432c-.221 1.096-.346 2.227-.381 3.381l6.984 2.619-1-3-2-3zm6.604 6l5 12v4.338c2.449 1.065 5.151 1.662 8 1.662.199 0 .395-.008.592-.014l6.408-10.986-16-9z"/>
  <path opacity=".2" d="m4.051 23.5c-.004.17-.051.329-.051.5 0 11.08 8.92 20 20 20 11.08 0 20-8.92 20-20 0-.171-.047-.33-.051-.5-.03 1.206-.121 2.398-.354 3.541-.266 1.304-.657 2.561-1.162 3.758-.505 1.197-1.122 2.335-1.84 3.398-.717 1.064-1.536 2.053-2.439 2.957-.904.904-1.893 1.722-2.957 2.439-1.064.717-2.201 1.335-3.398 1.84-1.197.505-2.454.897-3.758 1.162-1.304.266-2.656.404-4.04.404-1.385 0-2.737-.139-4.04-.404-1.304-.266-2.561-.657-3.758-1.162-.599-.252-1.183-.533-1.75-.84-.567-.307-1.117-.641-1.648-1-1.064-.717-2.053-1.536-2.957-2.439-.904-.904-1.722-1.893-2.439-2.957-.717-1.064-1.335-2.201-1.84-3.398-.505-1.197-.897-2.454-1.162-3.758-.233-1.143-.323-2.335-.354-3.541" transform="translate(384.57 499.8)"/>
 </g>
</svg>
